public/avatar/hat/62.svg

<svg xmlns:xlink="http://www.w3.org/1999/xlink" height="92.9" width="100.7" xmlns="http://www.w3.org/2000/svg"><use height="24" transform="translate(23.95 39.75)" width="33.9" xlink:href="#a"/><defs><g id="a"><path d="M-1.75-2.9q1.2-.75 2.2-.6Q2.1-3.25 2.1-2l.6-.65q.7-.6 1.5-.45 1.25.25 2.4 1.25L8.45 1.9q2.4 2.25.9 2.6l-7.5.65h-7q-.8-.05-1.5.75-.65.8-1.9.6l-2-.85 1.1-2.95Q-8.2-.2-7.4-.1l1.25.1q.35-2 1.75-2.5 1.35-.5 1.6.4l1.05-.8m9.6 9.65.6-1 1.8 1.05 3.35 6.7q-1 .25-1.75-1-.65-2.1-1-2.35l-1.4-1.4-1.6-2" fill-rule="evenodd" transform="translate(14.7 10)"/><path d="M10.25 7.55q-.5-.9 0-.75l2.7-.3q1.2.8.5 2.25l.4.35q.6.2.75.9.25 1.25-.4 2.15.25.75-.35.85-.6.15-1.65-1.35L10.85 8.5l-.6-.95m-20.7-.1.4-1.2 2.75-.5q-2.1 3.25-3 3.9-.85.6-1 1.35-.5 1.9-1.5 2.5-.95.6-.65-.55l.65-1.8 2.35-3.7" fill-rule="evenodd" transform="translate(14.7 10)"/><path d="M-12.9 12.4q-1.25 2.25-1.4 1.35-.55-1.2-.35-1.75l1.5-1.25q-1-2.1-.4-2.75l2-1.35 2.4-.15-2.15 2.9-1.6 3" fill-rule="evenodd" transform="translate(14.7 10)"/><path d="M10.6 2.7q2.55 1.2 2.7 2.5.2 2.2-2.5 2.5-2.4-.2-3.7-.05-2.8-.3-4.15.05l-4 .2-4.2-.05L-9.8 8l-1.6-.2q-.75.05-1.3-.6-.85-1-.8-2.15 0-1.25 1.3-1.7 3.4-1.2 4.8-.85l3.7.35L.95 2.7 4.3 3l2.65-.5 3.65.2" fill="#94b55e" fill-rule="evenodd" transform="translate(14.7 10)"/><path d="m10.35 4.4-5.9 1-4.75.25-1.25-.4L2.7 4.9l5.9-1.2 1.75.7m-10 3 7.6-1.5 2.75 1.6L.35 7.4" fill="#829e52" fill-rule="evenodd" transform="translate(14.7 10)"/><path d="M5.7-1.75Q5.6-3.5 6.1-10q2.1 5.4 2.1 7.65L8.1 2.9 6.2 1.65l-.5-3.4" fill="#94b55e" fill-rule="evenodd" transform="translate(14.7 10)"/><path d="M10.35-1 8.1 2.9l-.65-1.4.25-2.35.5-1.85q.7-1.95 1.4-2.65L12.85-9q-1.9 6.65-2.5 8m-.5 2.5 3.5-.25 5.85.5q-4.5 2.4-6 2.9l-3.35 1V1.5" fill="#94b55e" fill-rule="evenodd" transform="translate(14.7 10)"/><path d="M17.2-4.85q-3.1 5-4.35 6.1Q10.4 3.5 9.2 3.5L7.85 2.15 8.7 1l2.5-2.6 6-3.25" fill="#94b55e" fill-rule="evenodd" transform="translate(14.7 10)"/><path d="M7.8-1.5q1.25-.9 2.8 1.4l1.45-.7q1.5-.45 2 .6.85 1.7-.4 2.55 2.25.6 1.65 2.1-.6 1.5-2.45 1.05-1.1 1.65-2.8 1.75-1.05.05-1.6-.9l-.35-1q-1.9.3-2.9-1-.6-.8.55-2.05L7 1.2q-.1-.45-.05-1 .1-1.15.85-1.7" fill="#fff" fill-rule="evenodd" transform="translate(14.7 10)"/><path d="M7.8-1.5q-.75.55-.85 1.7-.05.55.05 1L5.75 2.3Q4.6 3.55 5.2 4.35q1 1.3 2.9 1l.35 1q.55.95 1.6.9 1.7-.1 2.8-1.75 1.85.45 2.45-1.05.6-1.5-1.65-2.1 1.25-.85.4-2.55-.5-1.05-2-.6l-1.45.7Q9.05-2.4 7.8-1.5Z" fill="none" stroke="#e5cc79" stroke-linecap="round" stroke-linejoin="round" transform="translate(14.7 10)"/><path d="m11.8 1.35-.6 1.75 1.65.6-1.8.25-.7 1.15-.15-1.25-1.6-.15 1.2-.6L9.05.95 10.6 2.5l1.2-1.15" fill="#ffb078" fill-rule="evenodd" transform="translate(14.7 10)"/><path d="m-12.65 6.5-.15-1.35 6.75.85 10.15.5-6.9.65-8.75.1-1.1-.75" fill="#829e52" fill-rule="evenodd" transform="translate(14.7 10)"/></g></defs></svg>

<?xml version="1.0" encoding="UTF-8" standalone="no"?>
<svg xmlns:xlink="http://www.w3.org/1999/xlink" height="92.9px" width="100.7px" xmlns="http://www.w3.org/2000/svg">
  <g transform="matrix(1.0, 0.0, 0.0, 1.0, 38.65, 49.75)">
    <use height="24.0" transform="matrix(1.0, 0.0, 0.0, 1.0, -14.7, -10.0)" width="33.9" xlink:href="#shape0"/>
  </g>
  <defs>
    <g id="shape0" transform="matrix(1.0, 0.0, 0.0, 1.0, 14.7, 10.0)">
      <path d="M-1.75 -2.9 Q-0.55 -3.65 0.45 -3.5 2.1 -3.25 2.1 -2.0 L2.7 -2.65 Q3.4 -3.25 4.2 -3.1 5.45 -2.85 6.6 -1.85 L8.45 1.9 Q10.85 4.15 9.35 4.5 L1.85 5.15 -5.15 5.15 Q-5.95 5.1 -6.65 5.9 -7.3 6.7 -8.55 6.5 L-10.55 5.65 -9.45 2.7 Q-8.2 -0.2 -7.4 -0.1 L-6.15 0.0 Q-5.8 -2.0 -4.4 -2.5 -3.05 -3.0 -2.8 -2.1 L-1.75 -2.9" fill="#000000" fill-rule="evenodd" stroke="none"/>
      <path d="M7.85 6.75 L8.45 5.75 10.25 6.8 13.6 13.5 Q12.6 13.75 11.85 12.5 11.2 10.4 10.85 10.15 L9.45 8.75 7.85 6.75" fill="#000000" fill-rule="evenodd" stroke="none"/>
      <path d="M10.25 7.55 Q9.75 6.65 10.25 6.8 L12.95 6.5 Q14.15 7.3 13.45 8.75 L13.85 9.1 Q14.45 9.3 14.6 10.0 14.85 11.25 14.2 12.15 14.45 12.9 13.85 13.0 13.25 13.15 12.2 11.65 L10.85 8.5 10.25 7.55" fill="#000000" fill-rule="evenodd" stroke="none"/>
      <path d="M-10.45 7.45 L-10.05 6.25 -7.3 5.75 Q-9.4 9.0 -10.3 9.65 -11.15 10.25 -11.3 11.0 -11.8 12.9 -12.8 13.5 -13.75 14.1 -13.45 12.95 L-12.8 11.15 -10.45 7.45" fill="#000000" fill-rule="evenodd" stroke="none"/>
      <path d="M-12.9 12.4 Q-14.15 14.65 -14.3 13.75 -14.85 12.55 -14.65 12.0 L-13.15 10.75 Q-14.15 8.65 -13.55 8.0 L-11.55 6.65 -9.15 6.5 -11.3 9.4 -12.9 12.4" fill="#000000" fill-rule="evenodd" stroke="none"/>
      <path d="M10.6 2.7 Q13.15 3.9 13.3 5.2 13.5 7.4 10.8 7.7 8.4 7.5 7.1 7.65 4.3 7.35 2.95 7.7 L-1.05 7.9 -5.25 7.85 -9.8 8.0 -11.4 7.8 Q-12.15 7.85 -12.7 7.2 -13.55 6.2 -13.5 5.05 -13.5 3.8 -12.2 3.35 -8.8 2.15 -7.4 2.5 L-3.7 2.85 0.95 2.7 4.3 3.0 6.95 2.5 10.6 2.7" fill="#94b55e" fill-rule="evenodd" stroke="none"/>
      <path d="M10.35 4.4 L4.45 5.4 -0.3 5.65 -1.55 5.25 2.7 4.9 8.6 3.7 10.35 4.4" fill="#829e52" fill-rule="evenodd" stroke="none"/>
      <path d="M0.35 7.4 L7.95 5.9 10.7 7.5 0.35 7.4" fill="#829e52" fill-rule="evenodd" stroke="none"/>
      <path d="M5.7 -1.75 Q5.6 -3.5 6.1 -10.0 8.2 -4.6 8.2 -2.35 L8.1 2.9 6.2 1.65 5.7 -1.75" fill="#94b55e" fill-rule="evenodd" stroke="none"/>
      <path d="M10.35 -1.0 L8.1 2.9 7.45 1.5 7.7 -0.85 8.2 -2.7 Q8.9 -4.65 9.6 -5.35 L12.85 -9.0 Q10.95 -2.35 10.35 -1.0" fill="#94b55e" fill-rule="evenodd" stroke="none"/>
      <path d="M9.85 1.5 L13.35 1.25 19.2 1.75 Q14.7 4.15 13.2 4.65 L9.85 5.65 9.85 1.5" fill="#94b55e" fill-rule="evenodd" stroke="none"/>
      <path d="M17.2 -4.85 Q14.1 0.15 12.85 1.25 10.4 3.5 9.2 3.5 L7.85 2.15 8.7 1.0 11.2 -1.6 17.2 -4.85" fill="#94b55e" fill-rule="evenodd" stroke="none"/>
      <path d="M7.8 -1.5 Q9.05 -2.4 10.6 -0.1 L12.05 -0.8 Q13.55 -1.25 14.05 -0.2 14.9 1.5 13.65 2.35 15.9 2.95 15.3 4.45 14.7 5.95 12.85 5.5 11.75 7.15 10.05 7.25 9.0 7.3 8.45 6.35 L8.1 5.35 Q6.2 5.65 5.2 4.35 4.6 3.55 5.75 2.3 L7.0 1.2 Q6.9 0.75 6.95 0.2 7.05 -0.95 7.8 -1.5" fill="#ffffff" fill-rule="evenodd" stroke="none"/>
      <path d="M7.8 -1.5 Q7.05 -0.95 6.95 0.2 6.9 0.75 7.0 1.2 L5.75 2.3 Q4.6 3.55 5.2 4.35 6.2 5.65 8.1 5.35 L8.45 6.35 Q9.0 7.3 10.05 7.25 11.75 7.15 12.85 5.5 14.7 5.95 15.3 4.45 15.9 2.95 13.65 2.35 14.9 1.5 14.05 -0.2 13.55 -1.25 12.05 -0.8 L10.6 -0.1 Q9.05 -2.4 7.8 -1.5 Z" fill="none" stroke="#e5cc79" stroke-linecap="round" stroke-linejoin="round" stroke-width="1.0"/>
      <path d="M11.8 1.35 L11.2 3.1 12.85 3.7 11.05 3.95 10.35 5.1 10.2 3.85 8.6 3.7 9.8 3.1 9.05 0.95 10.6 2.5 11.8 1.35" fill="#ffb078" fill-rule="evenodd" stroke="none"/>
      <path d="M-12.65 6.5 L-12.8 5.15 -6.05 6.0 4.1 6.5 -2.8 7.15 -11.55 7.25 -12.65 6.5" fill="#829e52" fill-rule="evenodd" stroke="none"/>
    </g>
  </defs>
</svg>
